-----BEGIN PGP SIGNATURE-----

iQGzBAABCgAdFiEEBbqisxkyppKzt3P4tCu7fdZYLIcFAmrIEJsACgkQtCu7fdZY
LIdExgwAgK5moQc7gv9FyGa6ARAimDbVe04zVVz9BYGBTOiB2mfjBPsnesP8e3Wp
N/+46MXKthR4nktJyf5SG1kVP1xKrcahGf1vGQpXpmtaRlZq/Y5olIaWrrq9W3Nv
AVZqrJU1t+kWKo1VHxMiLrgr7S4AQYIVpg4JGjgIQIOj4Ogaq4qzaOECedDE2bvf
1SXDFcJ+lQEsDsEgC9Y5247jfw536XkTGmpBXKWfk6gZ4Qv2UBzuFzigwHZVXZ5Q
IVy17bQ5MGRBt5Otu4pEzSpQJ7tbq956u3VgfCouXwwb02RxOVF4eeBr7gKCRCM4
xWWn4bWOnQWIRG98mlh3SojIaMKnoVGOD29ql+EsP862TFRcxDv3tqRkhzsYfFMg
WzW9+x8Jrkz5GP+n+g7bjCyxfUO4dKpCmiZYRK64kkP2jKFZGZDBnXHuAl6JMSCR
8PqmuDR67XzW6NCL/PZxMIHHA+nna72I1juY+DvamKkMHcKXeMmF+h8Ij32t10zd
kz9cB/u+
=CI/M
-----END PGP SIGNATURE-----
